ES1T1/13/aimg/a7.svg

<svg clip-rule="evenodd" fill-rule="evenodd" viewBox="0 0 200 200" xmlns="http://www.w3.org/2000/svg"><g transform="matrix(4.16667 0 0 4.16667 -1457.29 -475.873)"><path d="m373.585 155.03c-3.765 0-6.757-1.139-8.976-3.417-2.22-2.278-3.329-5.343-3.329-9.196 0-3.896 1.117-6.972 3.351-9.228s5.269-3.384 9.107-3.384c3.853 0 6.896 1.128 9.13 3.384s3.351 5.317 3.351 9.184c0 3.955-1.121 7.054-3.362 9.295s-5.332 3.362-9.272 3.362zm.109-4.065c3.736 0 5.603-2.864 5.603-8.592 0-2.622-.494-4.694-1.483-6.218-.988-1.523-2.347-2.285-4.076-2.285-1.714 0-3.065.762-4.054 2.285-.988 1.524-1.483 3.611-1.483 6.262 0 2.622.491 4.702 1.472 6.241.982 1.538 2.322 2.307 4.021 2.307z" fill="none" stroke="#aae1fa" stroke-width="2"/><path d="m.315.012c-.083 0-.15-.025-.199-.076-.049-.05-.074-.118-.074-.204 0-.087.025-.155.074-.205.05-.05.118-.075.203-.075s.153.025.203.075c.049.05.074.118.074.204 0 .088-.025.157-.075.206-.049.05-.118.075-.206.075zm.003-.09c.083 0 .124-.064.124-.191 0-.058-.011-.104-.033-.138s-.052-.051-.09-.051-.068.017-.09.051-.033.08-.033.139c0 .058.011.104.033.139.021.034.051.051.089.051z" fill="#fff" fill-rule="nonzero" transform="matrix(45 0 0 45 359.39 154.48)"/></g></svg>

<?xml version="1.0" encoding="UTF-8" standalone="no"?>
<!DOCTYPE svg PUBLIC "-//W3C//DTD SVG 1.1//EN" "http://www.w3.org/Graphics/SVG/1.1/DTD/svg11.dtd">
<svg width="100%" height="100%" viewBox="0 0 200 200" version="1.1" xmlns="http://www.w3.org/2000/svg" xmlns:xlink="http://www.w3.org/1999/xlink" xml:space="preserve" xmlns:serif="http://www.serif.com/" style="fill-rule:evenodd;clip-rule:evenodd;">
    <g transform="matrix(4.16667,0,0,4.16667,-1457.29,-475.873)">
        <path d="M373.585,155.03C369.82,155.03 366.828,153.891 364.609,151.613C362.389,149.335 361.28,146.27 361.28,142.417C361.28,138.521 362.397,135.445 364.631,133.189C366.865,130.933 369.9,129.805 373.738,129.805C377.591,129.805 380.634,130.933 382.868,133.189C385.102,135.445 386.219,138.506 386.219,142.373C386.219,146.328 385.098,149.427 382.857,151.668C380.616,153.909 377.525,155.03 373.585,155.03ZM373.694,150.965C377.43,150.965 379.297,148.101 379.297,142.373C379.297,139.751 378.803,137.679 377.814,136.155C376.826,134.632 375.467,133.87 373.738,133.87C372.024,133.87 370.673,134.632 369.684,136.155C368.696,137.679 368.201,139.766 368.201,142.417C368.201,145.039 368.692,147.119 369.673,148.658C370.655,150.196 371.995,150.965 373.694,150.965Z" style="fill:none;fill-rule:nonzero;stroke:rgb(170,225,250);stroke-width:2px;"/>
        <g transform="matrix(45,0,0,45,359.39,154.48)">
            <path d="M0.315,0.012C0.232,0.012 0.165,-0.013 0.116,-0.064C0.067,-0.114 0.042,-0.182 0.042,-0.268C0.042,-0.355 0.067,-0.423 0.116,-0.473C0.166,-0.523 0.234,-0.548 0.319,-0.548C0.404,-0.548 0.472,-0.523 0.522,-0.473C0.571,-0.423 0.596,-0.355 0.596,-0.269C0.596,-0.181 0.571,-0.112 0.521,-0.063C0.472,-0.013 0.403,0.012 0.315,0.012ZM0.318,-0.078C0.401,-0.078 0.442,-0.142 0.442,-0.269C0.442,-0.327 0.431,-0.373 0.409,-0.407C0.387,-0.441 0.357,-0.458 0.319,-0.458C0.281,-0.458 0.251,-0.441 0.229,-0.407C0.207,-0.373 0.196,-0.327 0.196,-0.268C0.196,-0.21 0.207,-0.164 0.229,-0.129C0.25,-0.095 0.28,-0.078 0.318,-0.078Z" style="fill:white;fill-rule:nonzero;"/>
        </g>
    </g>
</svg>
